dist/img/clock.svg

<svg width="18" height="18" viewBox="0 0 18 18" fill="none" xmlns="http://www.w3.org/2000/svg">
<path d="M8.4375 1.125C4.40772 1.125 1.125 4.40772 1.125 8.4375C1.125 12.4673 4.40772 15.75 8.4375 15.75C12.4673 15.75 15.75 12.4673 15.75 8.4375C15.75 4.40772 12.4673 1.125 8.4375 1.125ZM8.4375 2.25C11.8608 2.25 14.625 5.01416 14.625 8.4375C14.625 11.8608 11.8608 14.625 8.4375 14.625C5.01416 14.625 2.25 11.8608 2.25 8.4375C2.25 5.01416 5.01416 2.25 8.4375 2.25ZM7.875 3.375V9H11.25V7.875H9V3.375H7.875Z" fill="#E12025"/>
</svg>

<svg xmlns="http://www.w3.org/2000/svg" fill="none" viewBox="0 0 18 18"><path fill="#E12025" d="M8.438 1.125c-4.03 0-7.313 3.283-7.313 7.313 0 4.03 3.283 7.312 7.313 7.312 4.03 0 7.312-3.283 7.312-7.313 0-4.03-3.283-7.312-7.313-7.312zm0 1.125a6.18 6.18 0 016.187 6.188 6.18 6.18 0 01-6.188 6.187A6.18 6.18 0 012.25 8.437 6.18 6.18 0 018.438 2.25zm-.563 1.125V9h3.375V7.875H9v-4.5H7.875z"/></svg>
